!!!SOCIAL_FUNCTION:	potlatch songs
!!!PDT:	1939
!!!OTL: No_17_Song_Before_Distribution_of_Gifts_(a).krn
!!!LANG: Non-Tone
!!!LING_GROUP: Wakashan
!!!REG: Pacific Northwest
**kern
*staff1
=1-
*clefF4
*k[b-e-a-d-]
*M2/4
{8A-\L
8A-\J
8A-\
8r
=2
4c\
8c\L
8B-\J
=3||
*M3/4
2c\
4A-\
=4||
*M2/4
2B-\
=5
[2G\
=6
4G\]}
8r
16B-\LL
16A-\JJ
=7
2B-\
=8
4r
{8B-\L
8A-\J
=9
4B-\
8F\L
8E-\J
=10
8F\}
8r
{8G\L
8E-\J
=11||
*M3/4
4G\
8G\L
8F\J
8F\
8r
=12||
*M2/4
4G\
8G\L
8F\J
=13||
*M3/4
4G\
8G\L
16G\Jk
16r
8B-\L
8A-\J
=14||
*M2/4
4B-\
4c\
=15
4A-\
4B-\
=16
4G\
4r}
=17
4.r
{16B-\LL
16A-\JJ
=18
[2B-\
=19
4B-\]
4B-\
=20
4.A-\
8E-\
=21
4F\
4E-\
=22
4F\
4E-\
=23
4F\
8F\L
8F\J
=24
8A-\L
8E-\J
4E-\
=25
8E-\
8r
8E-\}
8r
==
*-
